X: 48
T:Hills of Lorne
M:4/4
L:1/8
Q:60
S:Transcribed from "Thistledown" by S. Cruzen
R:Slow air
O:Scotland
K:D
FE|:\
"D"D2FG "D"A2d2|"D"f3e "D"d2A2|"G"B3d "D"A2F2|"Em"E2GF "A"E2FE|\
"D"D2FG "D"A2d2|!
"D"f3e "D"d2A2|"G"B2gB "A"A2c2|[1"D"d6FE:|[2"D"d6ag||\
"D"f2ed "G"B2cd|"D"A3F "D"A2ag|!
"D"f2ed "D"A2df|"Em"e6 fe|\
"D"d2ef "D"A2dc|"Bm"B2d2 "G"g2ag|"D"f2ed "A"A2c2|"D"d6FE:|]!
